X: 1
T: Ally Bally
C: Farquhar MacDonald
S: as taught by Ronan Martin, BHSFC Aug 2014
Z: Terry Traub?
M: 6/8
L: 1/8
R: Jig
K: Em
|: A |\
"Em"BEE [B,E]EE | "C"[CE]EE EDE | "D"DFF AFF | "G"GBd "D"ded |\
"Em"BEE [B,E]EE | "C"[CE]EE EDE | "G"BBB "D"AGF | "Em"GEE E2 :|
|: F |\
"G"GGG GBG | "G"dGB GBG | "D"AFD DFA | "D"ddd AFD |\
"Em"BEE EBE | "Em"cEB EDE | "G"BBB "D"AGF | "Em"GEE E2 :|
